; G-Code generated by Simplify3D(R) Version 4.1.1
; Feb 23, 2019 at 6:15:13 PM
; Settings Summary
;   processName,Process1
;   applyToModels,Standardbox
;   profileName,Anycubic optimal (modified)
;   profileVersion,2018-06-18 17:13:20
;   baseProfile,Anycubic i3 Mega (modified)
;   printMaterial,PLA
;   printQuality,Medium
;   printExtruders,
;   extruderName,Primary Extruder
;   extruderToolheadNumber,0
;   extruderDiameter,0.4
;   extruderAutoWidth,1
;   extruderWidth,0.48
;   extrusionMultiplier,1.1
;   extruderUseRetract,1
;   extruderRetractionDistance,8
;   extruderExtraRestartDistance,0
;   extruderRetractionZLift,2
;   extruderRetractionSpeed,1800
;   extruderUseCoasting,0
;   extruderCoastingDistance,0.2
;   extruderUseWipe,0
;   extruderWipeDistance,5
;   primaryExtruder,0
;   layerHeight,0.2
;   topSolidLayers,4
;   bottomSolidLayers,3
;   perimeterOutlines,4
;   printPerimetersInsideOut,1
;   startPointOption,2
;   startPointOriginX,0
;   startPointOriginY,0
;   sequentialIslands,0
;   spiralVaseMode,0
;   firstLayerHeightPercentage,90
;   firstLayerWidthPercentage,80
;   firstLayerUnderspeed,0.5
;   useRaft,0
;   raftExtruder,0
;   raftTopLayers,3
;   raftBaseLayers,2
;   raftOffset,3
;   raftSeparationDistance,0.14
;   raftTopInfill,100
;   aboveRaftSpeedMultiplier,0.3
;   useSkirt,1
;   skirtExtruder,0
;   skirtLayers,1
;   skirtOutlines,10
;   skirtOffset,0
;   usePrimePillar,0
;   primePillarExtruder,999
;   primePillarWidth,12
;   primePillarLocation,7
;   primePillarSpeedMultiplier,1
;   useOozeShield,0
;   oozeShieldExtruder,999
;   oozeShieldOffset,2
;   oozeShieldOutlines,1
;   oozeShieldSidewallShape,1
;   oozeShieldSidewallAngle,30
;   oozeShieldSpeedMultiplier,1
;   infillExtruder,0
;   internalInfillPattern,Rectilinear
;   externalInfillPattern,Rectilinear
;   infillPercentage,10
;   outlineOverlapPercentage,50
;   infillExtrusionWidthPercentage,80
;   minInfillLength,5
;   infillLayerInterval,1
;   internalInfillAngles,45,-45
;   overlapInternalInfillAngles,0
;   externalInfillAngles,45,-45
;   generateSupport,1
;   supportExtruder,0
;   supportInfillPercentage,20
;   supportExtraInflation,0
;   supportBaseLayers,0
;   denseSupportExtruder,0
;   denseSupportLayers,0
;   denseSupportInfillPercentage,60
;   supportLayerInterval,1
;   supportHorizontalPartOffset,0.3
;   supportUpperSeparationLayers,1
;   supportLowerSeparationLayers,1
;   supportType,0
;   supportGridSpacing,4
;   maxOverhangAngle,45
;   supportAngles,0
;   temperatureName,Primary Extruder,Heated Bed
;   temperatureNumber,0,0
;   temperatureSetpointCount,1,1
;   temperatureSetpointLayers,1,1
;   temperatureSetpointTemperatures,190,60
;   temperatureStabilizeAtStartup,1,1
;   temperatureHeatedBed,0,1
;   fanLayers,1,2
;   fanSpeeds,0,80
;   blipFanToFullPower,1
;   adjustSpeedForCooling,1
;   minSpeedLayerTime,15
;   minCoolingSpeedSlowdown,20
;   increaseFanForCooling,0
;   minFanLayerTime,45
;   maxCoolingFanSpeed,100
;   increaseFanForBridging,0
;   bridgingFanSpeed,100
;   use5D,1
;   relativeEdistances,0
;   allowEaxisZeroing,1
;   independentExtruderAxes,0
;   includeM10123,0
;   stickySupport,1
;   applyToolheadOffsets,0
;   gcodeXoffset,0
;   gcodeYoffset,0
;   gcodeZoffset,0
;   overrideMachineDefinition,1
;   machineTypeOverride,0
;   strokeXoverride,210
;   strokeYoverride,210
;   strokeZoverride,205
;   originOffsetXoverride,0
;   originOffsetYoverride,0
;   originOffsetZoverride,0
;   homeXdirOverride,-1
;   homeYdirOverride,1
;   homeZdirOverride,-1
;   flipXoverride,1
;   flipYoverride,-1
;   flipZoverride,1
;   toolheadOffsets,0,0|0,0|0,0|0,0|0,0|0,0
;   overrideFirmwareConfiguration,1
;   firmwareTypeOverride,RepRap (Marlin/Repetier/Sprinter)
;   GPXconfigOverride,r2
;   baudRateOverride,250000
;   overridePrinterModels,1
;   printerModelsOverride
;   startingGcode,G28 X0 Y0,G28 Z0,M107 ; fan off,G1 X0 Y20 Z0.2 F10000 ; get ready to prime,G92 E0 ; reset extrusion distance,G1 X100 E20 F1000 ; prime nozzle,
;   layerChangeGcode,
;   retractionGcode,
;   toolChangeGcode,
;   endingGcode,G1 X0 Y195 F2400 ; position for easy part removal,M106 S0 ; fan off,M104 S0 ; turn off extruder,M140 S0 ; turn off bed,M84 ; disable motors
;   exportFileFormat,gcode
;   celebration,0
;   celebrationSong,Random Song
;   postProcessing,curl -k -H "X-Api-Key: 6B246F7265BA47B48538117241206D53" -F "select=false" -F "print=false" -F "file=@[output_filepath]" http://192.168.178.22/api/files/local?
;   defaultSpeed,4000
;   outlineUnderspeed,0.5
;   solidInfillUnderspeed,1
;   supportUnderspeed,0.8
;   rapidXYspeed,4800
;   rapidZspeed,1000
;   minBridgingArea,50
;   bridgingExtraInflation,0
;   bridgingExtrusionMultiplier,1
;   bridgingSpeedMultiplier,1
;   useFixedBridgingAngle,0
;   fixedBridgingAngle,0
;   applyBridgingToPerimeters,0
;   filamentDiameters,1.75|1.75|1.75|1.75|1.75|1.75
;   filamentPricesPerKg,46|46|46|46|46|46
;   filamentDensities,1.25|1.25|1.25|1.25|1.25|1.25
;   useMinPrintHeight,0
;   minPrintHeight,0
;   useMaxPrintHeight,0
;   maxPrintHeight,0
;   useDiaphragm,0
;   diaphragmLayerInterval,20
;   robustSlicing,1
;   mergeAllIntoSolid,0
;   onlyRetractWhenCrossingOutline,1
;   retractBetweenLayers,1
;   useRetractionMinTravel,0
;   retractionMinTravel,3
;   retractWhileWiping,0
;   onlyWipeOutlines,1
;   avoidCrossingOutline,0
;   maxMovementDetourFactor,3
;   toolChangeRetractionDistance,12
;   toolChangeExtraRestartDistance,-0.5
;   toolChangeRetractionSpeed,600
;   externalThinWallType,0
;   internalThinWallType,2
;   thinWallAllowedOverlapPercentage,10
;   singleExtrusionMinLength,1
;   singleExtrusionMinPrintingWidthPercentage,50
;   singleExtrusionMaxPrintingWidthPercentage,200
;   singleExtrusionEndpointExtension,0.2
;   horizontalSizeCompensation,0
G90
M82
M106 S0
M140 S60
M190 S60
M104 S190 T0
M109 S190 T0
G28 X0 Y0
G28 Z0
M107 ; fan off
G1 X0 Y20 Z0.2 F10000 ; get ready to prime
G92 E0 ; reset extrusion distance
G1 X100 E20 F1000 ; prime nozzle
; process Process1
; layer 1, Z = 0.180
T0
G92 E0.0000
G1 E-8.0000 F1800
; feature skirt
; tool H0.180 W0.384
G1 Z2.000 F1000
G1 X55.255 Y55.382 F4800
G1 Z0.180 F1000
G1 E0.0000 F1800
G92 E0.0000
G1 X55.382 Y55.255 E0.0057 F2000
G1 X56.245 Y54.473 E0.0425
G1 X56.383 Y54.359 E0.0481
G1 X57.319 Y53.666 E0.0849
G1 X57.468 Y53.566 E0.0906
G1 X58.467 Y52.967 E0.1274
G1 X58.625 Y52.883 E0.1331
G1 X59.678 Y52.385 E0.1699
G1 X59.843 Y52.316 E0.1756
G1 X60.939 Y51.924 E0.2124
G1 X61.111 Y51.872 E0.2180
G1 X62.241 Y51.589 E0.2549
G1 X62.416 Y51.554 E0.2605
G1 X63.568 Y51.383 E0.2973
G1 X63.746 Y51.366 E0.3030
G1 X64.802 Y51.314 E0.3364
G1 X64.891 Y51.311 E0.3392
G1 X145.109 Y51.311 E2.8749
G1 X145.198 Y51.314 E2.8778
G1 X146.254 Y51.366 E2.9112
G1 X146.432 Y51.383 E2.9168
G1 X147.584 Y51.554 E2.9537
G1 X147.760 Y51.589 E2.9593
G1 X148.889 Y51.872 E2.9961
G1 X149.061 Y51.924 E3.0018
G1 X150.158 Y52.317 E3.0386
G1 X150.323 Y52.385 E3.0443
G1 X151.376 Y52.883 E3.0811
G1 X151.534 Y52.968 E3.0868
G1 X152.532 Y53.566 E3.1235
G1 X152.681 Y53.666 E3.1292
G1 X153.616 Y54.359 E3.1660
G1 X153.755 Y54.473 E3.1717
G1 X154.618 Y55.255 E3.2085
G1 X154.745 Y55.382 E3.2142
G1 X155.527 Y56.245 E3.2510
G1 X155.640 Y56.383 E3.2566
G1 X156.334 Y57.319 E3.2934
G1 X156.434 Y57.468 E3.2991
G1 X157.034 Y58.468 E3.3360
G1 X157.118 Y58.626 E3.3416
G1 X157.615 Y59.677 E3.3784
G1 X157.683 Y59.842 E3.3841
G1 X158.076 Y60.941 E3.4209
G1 X158.128 Y61.112 E3.4266
G1 X158.411 Y62.241 E3.4634
G1 X158.446 Y62.417 E3.4690
G1 X158.617 Y63.568 E3.5058
G1 X158.634 Y63.746 E3.5115
G1 X158.686 Y64.802 E3.5449
G1 X158.689 Y64.891 E3.5477
G1 X158.689 Y145.109 E6.0834
G1 X158.686 Y145.198 E6.0863
G1 X158.634 Y146.254 E6.1197
G1 X158.617 Y146.432 E6.1254
G1 X158.446 Y147.583 E6.1621
G1 X158.411 Y147.759 E6.1678
G1 X158.128 Y148.888 E6.2046
G1 X158.076 Y149.059 E6.2102
G1 X157.683 Y150.157 E6.2471
G1 X157.615 Y150.323 E6.2528
G1 X157.117 Y151.375 E6.2895
G1 X157.033 Y151.533 E6.2952
G1 X156.434 Y152.532 E6.3320
G1 X156.334 Y152.681 E6.3377
G1 X155.640 Y153.617 E6.3745
G1 X155.527 Y153.755 E6.3802
G1 X154.745 Y154.618 E6.4170
G1 X154.618 Y154.745 E6.4227
G1 X153.755 Y155.527 E6.4595
G1 X153.617 Y155.640 E6.4651
G1 X152.681 Y156.334 E6.5020
G1 X152.532 Y156.434 E6.5076
G1 X151.533 Y157.033 E6.5445
G1 X151.375 Y157.117 E6.5501
G1 X150.323 Y157.615 E6.5869
G1 X150.157 Y157.683 E6.5926
G1 X149.059 Y158.076 E6.6294
G1 X148.888 Y158.128 E6.6351
G1 X147.759 Y158.411 E6.6719
G1 X147.583 Y158.446 E6.6775
G1 X146.432 Y158.617 E6.7143
G1 X146.254 Y158.634 E6.7200
G1 X145.198 Y158.686 E6.7534
G1 X145.109 Y158.689 E6.7562
G1 X64.891 Y158.689 E9.2919
G1 X64.802 Y158.686 E9.2948
G1 X63.746 Y158.634 E9.3282
G1 X63.568 Y158.617 E9.3339
G1 X62.417 Y158.446 E9.3706
G1 X62.241 Y158.411 E9.3763
G1 X61.112 Y158.128 E9.4131
G1 X60.941 Y158.076 E9.4187
G1 X59.842 Y157.683 E9.4556
G1 X59.677 Y157.615 E9.4613
G1 X58.626 Y157.118 E9.4980
G1 X58.468 Y157.034 E9.5037
G1 X57.468 Y156.434 E9.5406
G1 X57.319 Y156.334 E9.5462
G1 X56.383 Y155.640 E9.5830
G1 X56.245 Y155.527 E9.5887
G1 X55.382 Y154.745 E9.6255
G1 X55.255 Y154.618 E9.6312
G1 X54.473 Y153.755 E9.6680
G1 X54.359 Y153.616 E9.6737
G1 X53.666 Y152.681 E9.7105
G1 X53.566 Y152.532 E9.7161
G1 X52.968 Y151.534 E9.7529
G1 X52.883 Y151.376 E9.7586
G1 X52.385 Y150.323 E9.7954
G1 X52.317 Y150.158 E9.8011
G1 X51.924 Y149.061 E9.8379
G1 X51.872 Y148.889 E9.8435
G1 X51.589 Y147.760 E9.8804
G1 X51.554 Y147.584 E9.8860
G1 X51.383 Y146.432 E9.9228
G1 X51.366 Y146.254 E9.9285
G1 X51.314 Y145.198 E9.9619
G1 X51.311 Y145.109 E9.9647
G1 X51.311 Y64.891 E12.5004
G1 X51.314 Y64.802 E12.5033
G1 X51.366 Y63.746 E12.5367
G1 X51.383 Y63.568 E12.5423
G1 X51.554 Y62.416 E12.5791
G1 X51.589 Y62.241 E12.5848
G1 X51.872 Y61.111 E12.6216
G1 X51.924 Y60.939 E12.6273
G1 X52.316 Y59.843 E12.6641
G1 X52.385 Y59.678 E12.6697
G1 X52.883 Y58.625 E12.7066
G1 X52.967 Y58.467 E12.7122
G1 X53.566 Y57.468 E12.7491
G1 X53.666 Y57.319 E12.7547
G1 X54.359 Y56.383 E12.7915
G1 X54.473 Y56.245 E12.7972
G1 X55.255 Y55.382 E12.8340
G92 E0.0000
G1 E-8.0000 F1800
G1 Z2.180 F1000
G1 X55.533 Y55.647 F4800
G1 Z0.180 F1000
G1 E0.0000 F1800
G92 E0.0000
G1 X55.647 Y55.533 E0.0051 F2000
G1 X56.496 Y54.764 E0.0413
G1 X56.620 Y54.662 E0.0464
G1 X57.540 Y53.980 E0.0826
G1 X57.673 Y53.891 E0.0876
G1 X58.656 Y53.301 E0.1239
G1 X58.798 Y53.226 E0.1289
G1 X59.834 Y52.736 E0.1652
G1 X59.982 Y52.675 E0.1702
G1 X61.060 Y52.289 E0.2064
G1 X61.213 Y52.242 E0.2115
G1 X62.325 Y51.964 E0.2477
G1 X62.482 Y51.932 E0.2528
G1 X63.615 Y51.764 E0.2890
G1 X63.774 Y51.749 E0.2940
G1 X64.816 Y51.697 E0.3270
G1 X64.896 Y51.695 E0.3295
G1 X145.104 Y51.695 E2.8649
G1 X145.184 Y51.697 E2.8675
G1 X146.226 Y51.749 E2.9004
G1 X146.385 Y51.764 E2.9055
G1 X147.518 Y51.933 E2.9417
G1 X147.675 Y51.964 E2.9468
G1 X148.787 Y52.242 E2.9830
G1 X148.940 Y52.289 E2.9881
G1 X150.019 Y52.675 E3.0243
G1 X150.167 Y52.736 E3.0294
G1 X151.203 Y53.226 E3.0656
G1 X151.345 Y53.302 E3.0707
G1 X152.327 Y53.891 E3.1069
G1 X152.460 Y53.980 E3.1119
G1 X153.380 Y54.662 E3.1481
G1 X153.504 Y54.764 E3.1532
G1 X154.353 Y55.533 E3.1894
G1 X154.467 Y55.647 E3.1945
G1 X155.236 Y56.495 E3.2307
G1 X155.338 Y56.619 E3.2358
G1 X156.020 Y57.540 E3.2720
G1 X156.109 Y57.673 E3.2771
G1 X156.699 Y58.657 E3.3133
G1 X156.775 Y58.799 E3.3184
G1 X157.264 Y59.833 E3.3546
G1 X157.325 Y59.981 E3.3596
G1 X157.712 Y61.061 E3.3959
G1 X157.758 Y61.214 E3.4010
G1 X158.036 Y62.325 E3.4372
G1 X158.068 Y62.483 E3.4422
G1 X158.235 Y63.615 E3.4784
G1 X158.251 Y63.774 E3.4835
G1 X158.303 Y64.816 E3.5164
G1 X158.305 Y64.896 E3.5190
G1 X158.305 Y145.104 E6.0544
G1 X158.303 Y145.184 E6.0569
G1 X158.251 Y146.226 E6.0899
G1 X158.235 Y146.385 E6.0950
G1 X158.068 Y147.518 E6.1311
G1 X158.036 Y147.675 E6.1362
G1 X157.758 Y148.785 E6.1724
G1 X157.712 Y148.939 E6.1775
G1 X157.325 Y150.019 E6.2137
G1 X157.264 Y150.167 E6.2188
G1 X156.774 Y151.202 E6.2550
G1 X156.699 Y151.343 E6.2600
G1 X156.109 Y152.327 E6.2963
G1 X156.020 Y152.460 E6.3014
G1 X155.338 Y153.381 E6.3376
G1 X155.236 Y153.504 E6.3426
G1 X154.467 Y154.353 E6.3789
G1 X154.353 Y154.467 E6.3839
G1 X153.504 Y155.236 E6.4201
G1 X153.381 Y155.338 E6.4252
G1 X152.460 Y156.020 E6.4614
G1 X152.327 Y156.109 E6.4665
G1 X151.343 Y156.699 E6.5027
G1 X151.202 Y156.774 E6.5078
G1 X150.167 Y157.264 E6.5440
G1 X150.019 Y157.325 E6.5491
G1 X148.939 Y157.712 E6.5853
G1 X148.785 Y157.758 E6.5904
G1 X147.675 Y158.036 E6.6266
G1 X147.518 Y158.068 E6.6317
G1 X146.385 Y158.235 E6.6678
G1 X146.226 Y158.251 E6.6729
G1 X145.184 Y158.303 E6.7059
G1 X145.104 Y158.305 E6.7084
G1 X64.896 Y158.305 E9.2438
G1 X64.816 Y158.303 E9.2463
G1 X63.774 Y158.251 E9.2793
G1 X63.615 Y158.235 E9.2844
G1 X62.483 Y158.068 E9.3206
G1 X62.325 Y158.036 E9.3256
G1 X61.214 Y157.758 E9.3618
G1 X61.061 Y157.712 E9.3669
G1 X59.981 Y157.325 E9.4032
G1 X59.833 Y157.264 E9.4082
G1 X58.799 Y156.775 E9.4444
G1 X58.657 Y156.699 E9.4495
G1 X57.673 Y156.109 E9.4857
G1 X57.540 Y156.020 E9.4908
G1 X56.619 Y155.338 E9.5270
G1 X56.495 Y155.236 E9.5321
G1 X55.647 Y154.467 E9.5683
G1 X55.533 Y154.353 E9.5734
G1 X54.764 Y153.504 E9.6096
G1 X54.662 Y153.380 E9.6147
G1 X53.980 Y152.460 E9.6509
G1 X53.891 Y152.327 E9.6559
G1 X53.302 Y151.345 E9.6921
G1 X53.226 Y151.203 E9.6972
G1 X52.736 Y150.167 E9.7334
G1 X52.675 Y150.019 E9.7385
G1 X52.289 Y148.940 E9.7747
G1 X52.242 Y148.787 E9.7798
G1 X51.964 Y147.675 E9.8160
G1 X51.933 Y147.518 E9.8211
G1 X51.764 Y146.385 E9.8573
G1 X51.749 Y146.226 E9.8623
G1 X51.697 Y145.184 E9.8953
G1 X51.695 Y145.104 E9.8978
G1 X51.695 Y64.896 E12.4332
G1 X51.697 Y64.816 E12.4358
G1 X51.749 Y63.774 E12.4687
G1 X51.764 Y63.615 E12.4738
G1 X51.932 Y62.482 E12.5100
G1 X51.964 Y62.325 E12.5151
G1 X52.242 Y61.213 E12.5513
G1 X52.289 Y61.060 E12.5564
G1 X52.675 Y59.982 E12.5926
G1 X52.736 Y59.834 E12.5976
G1 X53.226 Y58.798 E12.6339
G1 X53.301 Y58.656 E12.6389
G1 X53.891 Y57.673 E12.6752
G1 X53.980 Y57.540 E12.6802
G1 X54.662 Y56.620 E12.7164
G1 X54.764 Y56.496 E12.7215
G1 X55.533 Y55.647 E12.7577
G92 E0.0000
G1 E-8.0000 F1800
G1 Z2.180 F1000
G1 X55.812 Y55.912 F4800
G1 Z0.180 F1000
G1 E0.0000 F1800
G92 E0.0000
G1 X55.912 Y55.812 E0.0045 F2000
G1 X56.747 Y55.055 E0.0401
G1 X56.856 Y54.965 E0.0446
G1 X57.761 Y54.294 E0.0802
G1 X57.879 Y54.215 E0.0847
G1 X58.846 Y53.636 E0.1203
G1 X58.970 Y53.569 E0.1248
G1 X59.989 Y53.087 E0.1604
G1 X60.120 Y53.033 E0.1649
G1 X61.180 Y52.654 E0.2005
G1 X61.316 Y52.612 E0.2049
G1 X62.409 Y52.339 E0.2406
G1 X62.548 Y52.311 E0.2450
G1 X63.662 Y52.146 E0.2806
G1 X63.803 Y52.132 E0.2851
G1 X64.830 Y52.081 E0.3176
G1 X64.901 Y52.079 E0.3199
G1 X145.099 Y52.079 E2.8550
G1 X145.170 Y52.081 E2.8572
G1 X146.197 Y52.132 E2.8897
G1 X146.338 Y52.146 E2.8942
G1 X147.453 Y52.311 E2.9298
G1 X147.591 Y52.339 E2.9343
G1 X148.684 Y52.612 E2.9699
G1 X148.820 Y52.654 E2.9744
G1 X149.881 Y53.033 E3.0100
G1 X150.012 Y53.087 E3.0145
G1 X151.031 Y53.569 E3.0501
G1 X151.155 Y53.636 E3.0546
G1 X152.121 Y54.215 E3.0902
G1 X152.239 Y54.294 E3.0946
G1 X153.144 Y54.965 E3.1303
G1 X153.253 Y55.055 E3.1347
G1 X154.088 Y55.812 E3.1704
G1 X154.188 Y55.912 E3.1748
G1 X154.945 Y56.746 E3.2104
G1 X155.035 Y56.856 E3.2149
G1 X155.706 Y57.761 E3.2505
G1 X155.785 Y57.879 E3.2550
G1 X156.365 Y58.847 E3.2907
G1 X156.431 Y58.971 E3.2952
G1 X156.913 Y59.988 E3.3307
G1 X156.967 Y60.119 E3.3352
G1 X157.347 Y61.181 E3.3709
G1 X157.388 Y61.317 E3.3753
G1 X157.662 Y62.410 E3.4109
G1 X157.689 Y62.548 E3.4154
G1 X157.854 Y63.662 E3.4510
G1 X157.868 Y63.803 E3.4555
